packages/kaspersky-hexa-ui-icons/src/iconsSVGs/64x42/FlagMm.svg

<svg xmlns="http://www.w3.org/2000/svg" width="64" height="42" fill="none" viewBox="0 0 64 42"><g clip-path="url(#a)"><rect width="64" height="42" fill="#fff" rx="5"/><path fill="#f13d4f" fill-rule="evenodd" d="M0 42h64V28H0z" clip-rule="evenodd"/><path fill="#4ac94b" fill-rule="evenodd" d="M0 27.9998h64V13.9999H0z" clip-rule="evenodd"/><path fill="#ffd043" fill-rule="evenodd" d="M0 14h64V0H0z" clip-rule="evenodd"/><path fill="#fff" fill-rule="evenodd" d="m31.9999 25.9139-7.4061 5.2796 2.7326-8.6751-7.3098-5.4121 9.0949-.0819 2.8884-8.6245 2.8883 8.6245 9.0949.0819-7.3098 5.4121 2.7326 8.6751z" clip-rule="evenodd"/></g><defs><clipPath id="a"><rect width="64" height="42" fill="#fff" rx="5"/></clipPath></defs></svg>

<svg width="64" height="42" viewBox="0 0 64 42" fill="none" xmlns="http://www.w3.org/2000/svg">
<g clip-path="url(#clip0_37941_2312)">
<rect width="64" height="42" rx="5" fill="white"/>
<path fill-rule="evenodd" clip-rule="evenodd" d="M0 42H64V28H0V42Z" fill="#F13D4F"/>
<path fill-rule="evenodd" clip-rule="evenodd" d="M0 27.9998H64V13.9999H0V27.9998Z" fill="#4AC94B"/>
<path fill-rule="evenodd" clip-rule="evenodd" d="M0 14H64V0H0V14Z" fill="#FFD043"/>
<path fill-rule="evenodd" clip-rule="evenodd" d="M31.9999 25.9139L24.5938 31.1935L27.3264 22.5184L20.0166 17.1063L29.1115 17.0244L31.9999 8.3999L34.8882 17.0244L43.9831 17.1063L36.6733 22.5184L39.4059 31.1935L31.9999 25.9139Z" fill="white"/>
</g>
<defs>
<clipPath id="clip0_37941_2312">
<rect width="64" height="42" rx="5" fill="white"/>
</clipPath>
</defs>
</svg>
